img/decore/main__decore_1.svg

<svg width="326" height="593" fill="none" xmlns="http://www.w3.org/2000/svg"><path d="M-104.953 83.95c0 46.507 17.985 124.926-49.93 209.698-66.336 82.802 24.924-179.394 116.578-195.622 107.138-18.97-77.502 420.275-87.023 330.883-5.326-50.011 149.646-312.51 193.238-268.918 55.454 55.454-89.957 372.2-123.91 366.99-59.9-9.19 154.332-373.535 215.118-342.155 72.485 37.418-46.99 287.123-102.428 300.517-44.351 10.714 121.065-231.278 231.756-175.894" stroke="#000" stroke-width="8" stroke-linecap="round"/><path d="M295.941 289.989c1.081-1.935 4.039-.937 3.726 1.257l-.576 4.042a2.001 2.001 0 002.255 2.264l15.715-2.18c2.12-.294 3.158 2.499 1.36 3.661l-11.677 7.55c-1.355.876-1.168 2.913.323 3.528l7.949 3.282c1.828.755 1.569 3.42-.369 3.81l-5.203 1.045a2 2 0 00-1.506 2.585l1.476 4.494c.564 1.717-1.258 3.242-2.849 2.384l-6.344-3.42c-1.628-.878-3.472.735-2.821 2.465l3.49 9.266c.757 2.01-1.755 3.638-3.28 2.125l-9.864-9.783a2 2 0 00-2.393-.321l-11.119 6.291c-1.853 1.048-3.843-1.139-2.625-2.885l6.548-9.387a2 2 0 00-.377-2.695l-11.418-9.294c-1.459-1.188-.619-3.551 1.263-3.551h8.796a2 2 0 001.979-1.715l1.379-9.562c.299-2.069 3.17-2.351 3.866-.381l2.234 6.324c.573 1.623 2.792 1.812 3.632.309l6.43-11.508z" fill="#CD4631"/></svg>

<svg width="326" height="593" viewBox="0 0 326 593" fill="none" xmlns="http://www.w3.org/2000/svg">
<path d="M-104.953 83.9508C-104.953 130.457 -86.9684 208.876 -154.883 293.648C-221.219 376.45 -129.959 114.254 -38.3047 98.0256C68.8327 79.0554 -115.807 518.301 -125.328 428.909C-130.654 378.898 24.3181 116.399 67.9096 159.991C123.364 215.445 -22.0467 532.191 -56.0005 526.981C-115.9 517.791 98.3315 153.446 159.118 184.826C231.603 222.244 112.128 471.949 56.6898 485.343C12.339 496.057 177.755 254.065 288.446 309.449" stroke="black" stroke-width="8" stroke-linecap="round"/>
<path d="M295.941 289.989C297.022 288.054 299.98 289.052 299.667 291.246L299.091 295.288C298.904 296.605 300.029 297.734 301.346 297.552L317.061 295.372C319.181 295.078 320.219 297.871 318.421 299.033L306.744 306.583C305.389 307.459 305.576 309.496 307.067 310.111L315.016 313.393C316.844 314.148 316.585 316.813 314.647 317.203L309.444 318.248C308.269 318.484 307.564 319.694 307.938 320.833L309.414 325.327C309.978 327.044 308.156 328.569 306.565 327.711L300.221 324.291C298.593 323.413 296.749 325.026 297.4 326.756L300.89 336.022C301.647 338.032 299.135 339.66 297.61 338.147L287.746 328.364C287.11 327.733 286.132 327.602 285.353 328.043L274.234 334.334C272.381 335.382 270.391 333.195 271.609 331.449L278.157 322.062C278.756 321.204 278.592 320.028 277.78 319.367L266.362 310.073C264.903 308.885 265.743 306.522 267.625 306.522H276.421C277.415 306.522 278.258 305.791 278.4 304.807L279.779 295.245C280.078 293.176 282.949 292.894 283.645 294.864L285.879 301.188C286.452 302.811 288.671 303 289.511 301.497L295.941 289.989Z" fill="#CD4631"/>
</svg>
